contributed-vectors/tide.svg

<?xml version="1.0" encoding="UTF-8" standalone="no"?>
<svg
   width="192"
   height="192"
   version="1.1"
   viewBox="0 0 192 192"
   id="svg14"
   sodipodi:docname="tide.svg"
   inkscape:version="1.1 (c68e22c387, 2021-05-23)"
   inkscape:export-xdpi="96"
   inkscape:export-ydpi="96"
   xmlns:inkscape="http://www.inkscape.org/namespaces/inkscape"
   xmlns:sodipodi="http://sodipodi.sourceforge.net/DTD/sodipodi-0.dtd"
   xmlns="http://www.w3.org/2000/svg"
   xmlns:svg="http://www.w3.org/2000/svg"
   xmlns:rdf="http://www.w3.org/1999/02/22-rdf-syntax-ns#"
   xmlns:cc="http://creativecommons.org/ns#"
   xmlns:dc="http://purl.org/dc/elements/1.1/">
  <metadata
     id="metadata20">
    <rdf:RDF>
      <cc:Work
         rdf:about="">
        <dc:format>image/svg+xml</dc:format>
        <dc:type
           rdf:resource="http://purl.org/dc/dcmitype/StillImage" />
      </cc:Work>
    </rdf:RDF>
  </metadata>
  <defs
     id="defs18" />
  <sodipodi:namedview
     pagecolor="#ffffff"
     bordercolor="#666666"
     borderopacity="1"
     objecttolerance="10"
     gridtolerance="10"
     guidetolerance="10"
     inkscape:pageopacity="0"
     inkscape:pageshadow="2"
     inkscape:window-width="1718"
     inkscape:window-height="1378"
     id="namedview16"
     showgrid="false"
     inkscape:zoom="1.6848959"
     inkscape:cx="14.837712"
     inkscape:cy="200.60587"
     inkscape:window-x="1713"
     inkscape:window-y="0"
     inkscape:window-maximized="0"
     inkscape:current-layer="svg14"
     inkscape:document-rotation="0"
     inkscape:pagecheckerboard="0" />
  <path
     id="path1005"
     style="fill:#fcecdc;fill-opacity:1;stroke-width:1"
     d="M 105.98828 14.240234 C 98.055603 14.237947 89.872535 14.609103 85.662109 15.357422 C 51.261613 21.471442 29.350641 37.561777 20.257812 63.388672 C 15.47583 76.971222 14.582476 93.897847 17.853516 108.91797 C 25.812986 145.4667 54.688437 174.19919 86.697266 177.41992 C 103.47815 179.10841 123.20708 174.43117 137.01172 165.49219 C 162.37607 149.06792 177.4193 116.80106 175.99805 81.865234 C 175.46769 68.828666 172.91866 58.031784 168.08594 48.353516 C 159.41841 30.995467 145.15768 20.125394 124.8125 15.369141 C 121.60235 14.61869 113.92096 14.242522 105.98828 14.240234 z M 96 56.914062 A 39.085499 39.085499 0 0 1 131.35938 79.351562 C 133.99668 84.595406 135.4954 90.530496 135.4707 96.867188 C 135.44625 103.14221 134.34415 107.929 131.61719 113.60547 C 126.70042 123.84025 116.42241 132.16214 105.78906 134.51953 C 94.514486 137.01908 84.490055 135.29001 75.777344 129.37695 A 39.085499 39.085499 0 0 1 56.914062 96 A 39.085499 39.085499 0 0 1 96 56.914062 z " />
  <path
     id="path1005-1"
     style="fill:#ff837d;fill-opacity:0.501961;stroke-width:0.999997"
     d="M 91.169922 26.222656 C 74.293336 26.236785 60.296835 31.907404 49.287109 43.212891 C 40.86515 51.861084 34.222113 64.42364 31.419922 77.001953 C 24.601279 107.60899 36.446698 139.63675 59.662109 153.36133 C 71.832971 160.55657 88.490536 163.94747 102.14062 162.00977 C 127.22101 158.44955 150.02962 139.20209 161.25391 112.125 C 165.44234 102.02095 167.30643 92.908468 167.03906 83.84375 C 166.55951 67.586114 159.54004 54.29611 145.73828 43.511719 C 141.38289 40.108474 122.89208 31.540461 115.95898 29.712891 C 107.10811 27.379815 98.841097 26.216234 91.169922 26.222656 z M 96 56.914062 A 39.085503 39.085499 0 0 1 135.08594 96 A 39.085503 39.085499 0 0 1 96 135.08594 A 39.085503 39.085499 0 0 1 56.914062 96 A 39.085503 39.085499 0 0 1 96 56.914062 z " />
  <path
     id="path2365"
     style="fill:#ff837d;fill-opacity:0.501961;stroke-width:1"
     d="M 98.898438 47.419922 A 62.13842 55.886513 49.4367 0 0 61.224609 59.689453 A 62.13842 55.886513 49.4367 0 0 59.175781 143.23828 A 62.13842 55.886513 49.4367 0 0 142.04102 154.10156 A 62.13842 55.886513 49.4367 0 0 144.08984 70.552734 A 62.13842 55.886513 49.4367 0 0 98.898438 47.419922 z M 96 56.914062 A 39.085499 39.085503 0 0 1 135.08594 96 A 39.085499 39.085503 0 0 1 96 135.08594 A 39.085499 39.085503 0 0 1 56.914062 96 A 39.085499 39.085503 0 0 1 96 56.914062 z " />
</svg>

<svg xmlns="http://www.w3.org/2000/svg" width="192" height="192"><path d="M105.988 14.24c-7.932-.002-16.115.37-20.326 1.117-34.4 6.114-56.311 22.205-65.404 48.032-4.782 13.582-5.676 30.509-2.404 45.529 7.959 36.549 36.834 65.281 68.843 68.502 16.781 1.688 36.51-2.989 50.315-11.928 25.364-16.424 40.407-48.69 38.986-83.627-.53-13.036-3.08-23.833-7.912-33.511-8.668-17.359-22.928-28.229-43.274-32.985-3.21-.75-10.891-1.126-18.824-1.129zM96 56.914a39.085 39.085 0 0 1 35.36 22.438 38.495 38.495 0 0 1 4.11 17.515c-.024 6.275-1.126 11.062-3.853 16.738-4.917 10.235-15.195 18.557-25.828 20.915-11.275 2.5-21.299.77-30.012-5.143A39.085 39.085 0 0 1 56.914 96 39.085 39.085 0 0 1 96 56.914z" style="fill:#fcecdc;fill-opacity:1;stroke-width:1"/><path d="M91.17 26.223c-16.877.014-30.873 5.684-41.883 16.99-8.422 8.648-15.065 21.21-17.867 33.789-6.819 30.607 5.027 62.635 28.242 76.36 12.171 7.195 28.829 10.585 42.479 8.648 25.08-3.56 47.889-22.808 59.113-49.885 4.188-10.104 6.052-19.217 5.785-28.281-.48-16.258-7.499-29.548-21.3-40.332-4.356-3.404-22.847-11.972-29.78-13.8-8.85-2.332-17.118-3.496-24.79-3.49zM96 56.914A39.086 39.085 0 0 1 135.086 96 39.086 39.085 0 0 1 96 135.086 39.086 39.085 0 0 1 56.914 96 39.086 39.085 0 0 1 96 56.914z" style="fill:#ff837d;fill-opacity:.501961;stroke-width:.999997"/><path d="M98.898 47.42a62.138 55.887 49.437 0 0-37.673 12.27 62.138 55.887 49.437 0 0-2.05 83.548 62.138 55.887 49.437 0 0 82.866 10.864 62.138 55.887 49.437 0 0 2.049-83.55A62.138 55.887 49.437 0 0 98.898 47.42zM96 56.914A39.085 39.086 0 0 1 135.086 96 39.085 39.086 0 0 1 96 135.086 39.085 39.086 0 0 1 56.914 96 39.085 39.086 0 0 1 96 56.914z" style="fill:#ff837d;fill-opacity:.501961;stroke-width:1"/></svg>
